assets/illustrations/multisize/40/docx.svg

<svg id="0dbb6ad5-83ee-4ede-95ac-b6c51f5239f0" data-name="ICONS" xmlns="http://www.w3.org/2000/svg" xmlns:xlink="http://www.w3.org/1999/xlink" viewBox="0 0 40 40"><defs><linearGradient id="aa1d0976-33de-4c31-878f-a977c711026c" x1="6.09939" y1="4.4339" x2="35.39486" y2="39.34688" gradientUnits="userSpaceOnUse"><stop offset="0" stop-color="#fff" stop-opacity="0"/><stop offset="0.86247" stop-color="#5e5e5e" stop-opacity="0.06315"/><stop offset="1" stop-opacity="0.1"/></linearGradient><linearGradient id="26ed2550-1b65-4fce-9d45-6187ea7798b8" x1="32" y1="13.90625" x2="32" y2="11.08751" gradientUnits="userSpaceOnUse"><stop offset="0" stop-color="#828282" stop-opacity="0"/><stop offset="0.86247" stop-color="#303030" stop-opacity="0.06315"/><stop offset="1" stop-opacity="0.1"/></linearGradient><linearGradient id="a25280ba-71c9-44f4-8079-7ba2cf076512" x1="26.79167" y1="9.70833" x2="31.72991" y2="4.77009" gradientUnits="userSpaceOnUse"><stop offset="0" stop-color="#fff" stop-opacity="0"/><stop offset="0.44604" stop-color="#fff" stop-opacity="0.00799"/><stop offset="0.63551" stop-color="#fff" stop-opacity="0.03616"/><stop offset="0.77636" stop-color="#fff" stop-opacity="0.08493"/><stop offset="0.8924" stop-color="#fff" stop-opacity="0.15385"/><stop offset="0.99328" stop-color="#fff" stop-opacity="0.24291"/><stop offset="1" stop-color="#fff" stop-opacity="0.25"/></linearGradient><linearGradient id="df37a5b8-4bee-4c12-8d32-24d66d8c08f5" x1="14.27844" y1="36.94138" x2="14.65697" y2="33.3769" gradientUnits="userSpaceOnUse"><stop offset="0" stop-color="#828282" stop-opacity="0"/><stop offset="0.99719" stop-opacity="0.2"/></linearGradient><linearGradient id="d341a5d7-64ac-48ad-8e36-62f793b0729b" x1="11.5" y1="32.79198" x2="11.5" y2="12.21733" gradientUnits="userSpaceOnUse"><stop offset="0" stop-color="#fff" stop-opacity="0"/><stop offset="0.52587" stop-color="#fff" stop-opacity="0.00735"/><stop offset="0.71529" stop-color="#fff" stop-opacity="0.03396"/><stop offset="0.8503" stop-color="#fff" stop-opacity="0.0803"/><stop offset="0.95875" stop-color="#fff" stop-opacity="0.14595"/><stop offset="1" stop-color="#fff" stop-opacity="0.18"/></linearGradient></defs><title>FileTypeIcons_Master_All_NEW</title><polygon points="10 3 29 3 36 10 36 37 10 37 10 3" fill="#fff"/><path d="M29,2H9V38H37V10Zm0,1.5L35.5,10H29ZM36,37H10V3H28v8h8Z" fill="#949494"/><rect x="20" y="32" width="13" height="1" fill="#c8c8c8"/><rect x="20" y="29" width="13" height="1" fill="#c8c8c8"/><rect x="20" y="26" width="13" height="1" fill="#c8c8c8"/><rect x="20" y="23" width="13" height="1" fill="#c8c8c8"/><rect x="20" y="20" width="13" height="1" fill="#c8c8c8"/><rect x="20" y="17" width="13" height="1" fill="#c8c8c8"/><rect x="20" y="14" width="13" height="1" fill="#c8c8c8"/><rect x="13" y="6" width="7" height="1" fill="#c8c8c8"/><polygon points="3 13 20 11 20 34 3 32 3 13" fill="#2b579a"/><path d="M17,19l-2.06182,8H12.9906l-1.29475-5.1325a4.38143,4.38143,0,0,1-.12513-.89818H11.549a5.58522,5.58522,0,0,1-.14144.89818L10.08012,27H8.05094L6,19H7.92038l1.09891,5.32775a6.5147,6.5147,0,0,1,.10336.91493h.03264a4.53158,4.53158,0,0,1,.15777-.93724L10.7275,19h1.88229l1.27844,5.37238a6.73285,6.73285,0,0,1,.12512.85914h.02176a5.89857,5.89857,0,0,1,.11425-.89261L15.22651,19Z" fill="#fff"/><path d="M29,2H9V12.29419L3,13V32l6,.70581V38H37V10Z" fill="url(#aa1d0976-33de-4c31-878f-a977c711026c)"/><rect x="28" y="11" width="8" height="3" fill="url(#26ed2550-1b65-4fce-9d45-6187ea7798b8)"/><polygon points="29 2 9 2 9 3 28 3 28 11 36 11 36 25 37 25 37 10 29 2" fill="url(#a25280ba-71c9-44f4-8079-7ba2cf076512)"/><polygon points="20 37 9 37 9 32.71 20 34 20 37" fill="url(#df37a5b8-4bee-4c12-8d32-24d66d8c08f5)"/><path d="M11.43848,20.73877c-.00879.0957-.02149.17407-.03223.26123H11.499c-.00879-.09119-.0332-.165-.03711-.26123Z" fill="#949494"/><polygon points="20 34 3 32 3 13 20 11 20 34" fill="url(#d341a5d7-64ac-48ad-8e36-62f793b0729b)"/></svg>

<?xml version="1.0" encoding="utf-8"?>
<!-- Generator: Adobe Illustrator 21.1.0, SVG Export Plug-In . SVG Version: 6.00 Build 0)  -->
<svg version="1.1" xmlns="http://www.w3.org/2000/svg" xmlns:xlink="http://www.w3.org/1999/xlink" x="0px" y="0px"
	 viewBox="0 0 40 40" enable-background="new 0 0 40 40" xml:space="preserve">
<g id="TEMPLATE" display="none">
	<g display="inline">
		<path fill="#D0D0D0" d="M40,0v40H0V0H40 M41-1h-1H0h-1v1v40v1h1h40h1v-1V0V-1L41-1z"/>
	</g>
	<g display="inline" opacity="0.1">
		<path fill="#FF3A6D" d="M38,2v36H2V2H38 M40,0H0v40h40V0L40,0z"/>
	</g>
</g>
<g id="ICONS">
	<g>
		<polygon fill="#FFFFFF" points="10,3 29,3 36,10 36,37 10,37 		"/>
		<path fill="#949494" d="M29,2H9v36h28V10L29,2z M29,3.5l6.5,6.5H29V3.5z M36,37H10V3h18v8h8V37z"/>
	</g>
	<rect x="20" y="32" fill="#C8C8C8" width="13" height="1"/>
	<rect x="20" y="29" fill="#C8C8C8" width="13" height="1"/>
	<rect x="20" y="26" fill="#C8C8C8" width="13" height="1"/>
	<rect x="20" y="23" fill="#C8C8C8" width="13" height="1"/>
	<rect x="20" y="20" fill="#C8C8C8" width="13" height="1"/>
	<rect x="20" y="17" fill="#C8C8C8" width="13" height="1"/>
	<rect x="20" y="14" fill="#C8C8C8" width="13" height="1"/>
	<rect x="13" y="6" fill="#C8C8C8" width="7" height="1"/>
	<polygon fill="#2B579A" points="3,13 20,11 20,34 3,32 	"/>
	<g>
		<path fill="#FFFFFF" d="M17,19l-2.0618,8h-1.9476l-1.2948-5.1325c-0.0689-0.2678-0.1106-0.5672-0.1251-0.8982H11.549
			c-0.0326,0.3645-0.0798,0.6639-0.1414,0.8982L10.0801,27H8.0509L6,19h1.9204l1.0989,5.3278
			c0.0471,0.2269,0.0816,0.5318,0.1034,0.9149h0.0326c0.0145-0.2864,0.0671-0.5988,0.1578-0.9372L10.7275,19h1.8823l1.2784,5.3724
			c0.0471,0.1971,0.0889,0.4835,0.1251,0.8591h0.0218c0.0145-0.2938,0.0526-0.5914,0.1142-0.8926L15.2265,19H17z"/>
	</g>
	<linearGradient id="SVGID_1_" gradientUnits="userSpaceOnUse" x1="6.0994" y1="4.4339" x2="35.3949" y2="39.3469">
		<stop  offset="0" style="stop-color:#FFFFFF;stop-opacity:0"/>
		<stop  offset="0.2264" style="stop-color:#FCFCFC;stop-opacity:0.0226"/>
		<stop  offset="0.3626" style="stop-color:#F4F4F4;stop-opacity:0.0363"/>
		<stop  offset="0.475" style="stop-color:#E6E6E6;stop-opacity:0.0475"/>
		<stop  offset="0.5744" style="stop-color:#D1D1D1;stop-opacity:0.0574"/>
		<stop  offset="0.6652" style="stop-color:#B7B7B7;stop-opacity:0.0665"/>
		<stop  offset="0.7498" style="stop-color:#979797;stop-opacity:0.075"/>
		<stop  offset="0.8297" style="stop-color:#707070;stop-opacity:0.083"/>
		<stop  offset="0.9057" style="stop-color:#444444;stop-opacity:0.0906"/>
		<stop  offset="0.9761" style="stop-color:#121212;stop-opacity:0.0976"/>
		<stop  offset="1" style="stop-color:#000000;stop-opacity:0.1"/>
	</linearGradient>
	<path fill="url(#SVGID_1_)" d="M29,2H9v10.2942L3,13v19l6,0.7058V38h28V10L29,2z"/>
	<linearGradient id="SVGID_2_" gradientUnits="userSpaceOnUse" x1="32" y1="13.9063" x2="32" y2="11.0875">
		<stop  offset="0" style="stop-color:#828282;stop-opacity:0"/>
		<stop  offset="0.2812" style="stop-color:#7F7F7F;stop-opacity:0.0281"/>
		<stop  offset="0.4503" style="stop-color:#777777;stop-opacity:0.045"/>
		<stop  offset="0.5899" style="stop-color:#696969;stop-opacity:0.059"/>
		<stop  offset="0.7133" style="stop-color:#545454;stop-opacity:0.0713"/>
		<stop  offset="0.8259" style="stop-color:#3A3A3A;stop-opacity:0.0826"/>
		<stop  offset="0.9294" style="stop-color:#1A1A1A;stop-opacity:0.0929"/>
		<stop  offset="1" style="stop-color:#000000;stop-opacity:0.1"/>
	</linearGradient>
	<rect x="28" y="11" fill="url(#SVGID_2_)" width="8" height="3"/>
	<linearGradient id="SVGID_3_" gradientUnits="userSpaceOnUse" x1="26.7917" y1="9.7083" x2="31.7299" y2="4.7701">
		<stop  offset="0" style="stop-color:#FFFFFF;stop-opacity:0"/>
		<stop  offset="0.8537" style="stop-color:#FFFFFF;stop-opacity:0.2134"/>
		<stop  offset="1" style="stop-color:#FFFFFF;stop-opacity:0.25"/>
	</linearGradient>
	<polygon fill="url(#SVGID_3_)" points="29,2 9,2 9,3 28,3 28,11 35.9999,10.9999 36,25 37,25 37,10 	"/>
	<linearGradient id="SVGID_4_" gradientUnits="userSpaceOnUse" x1="14.2784" y1="36.9414" x2="14.657" y2="33.3769">
		<stop  offset="0" style="stop-color:#828282;stop-opacity:0"/>
		<stop  offset="0.1699" style="stop-color:#7E7E7E;stop-opacity:0.0341"/>
		<stop  offset="0.346" style="stop-color:#717171;stop-opacity:0.0694"/>
		<stop  offset="0.5248" style="stop-color:#5D5D5D;stop-opacity:0.1053"/>
		<stop  offset="0.7057" style="stop-color:#404040;stop-opacity:0.1415"/>
		<stop  offset="0.8863" style="stop-color:#1B1B1B;stop-opacity:0.1778"/>
		<stop  offset="0.9972" style="stop-color:#000000;stop-opacity:0.2"/>
	</linearGradient>
	<polygon fill="url(#SVGID_4_)" points="20,37 9,37 9,32.71 20,34 	"/>
	<path fill="#949494" d="M11.4385,20.7388C11.4297,20.8345,11.417,20.9128,11.4063,21h0.0928
		c-0.0088-0.0912-0.0332-0.165-0.0371-0.2612H11.4385z"/>
	<linearGradient id="SVGID_5_" gradientUnits="userSpaceOnUse" x1="11.5" y1="32.792" x2="11.5" y2="12.2173">
		<stop  offset="0" style="stop-color:#FFFFFF;stop-opacity:0"/>
		<stop  offset="0.8587" style="stop-color:#FFFFFF;stop-opacity:0.1546"/>
		<stop  offset="1" style="stop-color:#FFFFFF;stop-opacity:0.18"/>
	</linearGradient>
	<polygon fill="url(#SVGID_5_)" points="20,34 3,32 3,13 20,11 	"/>
</g>
</svg>
